images/portal/5891.svg

<?xml version="1.0" standalone="no"?><!DOCTYPE svg PUBLIC "-//W3C//DTD SVG 1.1//EN" "http://www.w3.org/Graphics/SVG/1.1/DTD/svg11.dtd"><svg xmlns:xlink="http://www.w3.org/1999/xlink" version="1.1" class="highcharts-root" style="font-family:arial;font-size:12px;" xmlns="http://www.w3.org/2000/svg" viewBox="0 0 485 415"><desc>Created with Highstock 5.0.14</desc><defs><clipPath id="highcharts-eoaldb0-6"><rect x="0" y="0" width="432" height="243" fill="none"></rect></clipPath><clipPath id="highcharts-eoaldb0-7"><rect x="0" y="0" width="432" height="243" fill="none"></rect></clipPath></defs><rect fill="#fbfbfb" class="highcharts-background" x="0" y="0" width="485" height="415" rx="0" ry="0"></rect><rect fill="none" class="highcharts-plot-background" x="43" y="106" width="432" height="243"></rect><g class="highcharts-pane-group"></g><g class="highcharts-grid highcharts-xaxis-grid "><path fill="none" class="highcharts-grid-line" d="M 93.5 106 L 93.5 349" opacity="1"></path><path fill="none" class="highcharts-grid-line" d="M 164.5 106 L 164.5 349" opacity="1"></path><path fill="none" class="highcharts-grid-line" d="M 234.5 106 L 234.5 349" opacity="1"></path><path fill="none" class="highcharts-grid-line" d="M 305.5 106 L 305.5 349" opacity="1"></path><path fill="none" class="highcharts-grid-line" d="M 376.5 106 L 376.5 349" opacity="1"></path><path fill="none" class="highcharts-grid-line" d="M 446.5 106 L 446.5 349" opacity="1"></path></g><g class="highcharts-grid highcharts-yaxis-grid "><path fill="none" stroke="#B9CFD7" stroke-width="0.5" class="highcharts-grid-line" d="M 43 349.25 L 475 349.25" opacity="1"></path><path fill="none" stroke="#B9CFD7" stroke-width="0.5" class="highcharts-grid-line" d="M 43 288.25 L 475 288.25" opacity="1"></path><path fill="none" stroke="#B9CFD7" stroke-width="0.5" class="highcharts-grid-line" d="M 43 228.25 L 475 228.25" opacity="1"></path><path fill="none" stroke="#B9CFD7" stroke-width="0.5" class="highcharts-grid-line" d="M 43 167.25 L 475 167.25" opacity="1"></path><path fill="none" stroke="#B9CFD7" stroke-width="0.5" class="highcharts-grid-line" d="M 43 106.25 L 475 106.25" opacity="1"></path></g><rect fill="none" class="highcharts-plot-border" x="43" y="106" width="432" height="243"></rect><g class="highcharts-axis highcharts-xaxis "><path fill="none" class="highcharts-axis-line" stroke="#B9CFD7" stroke-width="0.5" d="M 43 349.25 L 475 349.25"></path></g><g class="highcharts-axis highcharts-yaxis "><path fill="none" class="highcharts-axis-line" d="M 43 106 L 43 349"></path></g><g class="highcharts-series-group"><g class="highcharts-series highcharts-series-0 highcharts-line-series highcharts-color-undefined " transform="translate(43,106) scale(1 1)" clip-path="url(#highcharts-eoaldb0-7)"><path fill="none" d="M 4.2352941176485 107.91399149999998 L 98.352941176471 89.167392 L 145.41176470588 91.2446775 L 168.94117647059 99.76061249999998 L 192.47058823529 98.3956815 L 239.52941176471 100.64926349999999 L 286.58823529412 78.60369599999999 L 333.64705882353 77.79730049999998 L 380.70588235294 78.683886 L 427.76470588235 79.35347249999998" class="highcharts-graph" stroke="#B00000" stroke-width="2" stroke-linejoin="round" stroke-linecap="round"></path></g><g class="highcharts-markers highcharts-series-0 highcharts-line-series highcharts-color-undefined " transform="translate(43,106) scale(1 1)" clip-path="none"><path fill="#B00000" d="M 8 108 A 4 4 0 1 1 7.999998000000167 107.99600000066667 Z" class="highcharts-point"></path><path fill="#B00000" d="M 102 89 A 4 4 0 1 1 101.99999800000016 88.99600000066667 Z" class="highcharts-point"></path><path fill="#B00000" d="M 149 91 A 4 4 0 1 1 148.99999800000018 90.99600000066667 Z" class="highcharts-point"></path><path fill="#B00000" d="M 172 100 A 4 4 0 1 1 171.99999800000018 99.99600000066667 Z" class="highcharts-point"></path><path fill="#B00000" d="M 196 98 A 4 4 0 1 1 195.99999800000018 97.99600000066667 Z" class="highcharts-point"></path><path fill="#B00000" d="M 243 101 A 4 4 0 1 1 242.99999800000018 100.99600000066667 Z" class="highcharts-point"></path><path fill="#B00000" d="M 290 79 A 4 4 0 1 1 289.9999980000002 78.99600000066667 Z" class="highcharts-point"></path><path fill="#B00000" d="M 337 78 A 4 4 0 1 1 336.9999980000002 77.99600000066667 Z" class="highcharts-point"></path><path fill="#B00000" d="M 384 79 A 4 4 0 1 1 383.9999980000002 78.99600000066667 Z" class="highcharts-point"></path><path fill="#B00000" d="M 431 79 A 4 4 0 1 1 430.9999980000002 78.99600000066667 Z" class="highcharts-point"></path></g><g class="highcharts-series highcharts-series-1 highcharts-line-series highcharts-color-undefined " transform="translate(43,106) scale(1 1)" clip-path="url(#highcharts-eoaldb0-7)"><path fill="none" d="M 4.2352941176485 94.02083099999999 L 98.352941176471 70.52479649999998 L 145.41176470588 76.37319899999997 L 168.94117647059 81.742527 L 192.47058823529 82.5141735 L 239.52941176471 84.6780885 L 286.58823529412 63.14598000000001 L 333.64705882353 62.42317650000001 L 380.70588235294 62.69290649999999 L 427.76470588235 63.71751599999999" class="highcharts-graph" stroke="#007A2F" stroke-width="2" stroke-linejoin="round" stroke-linecap="round"></path></g><g class="highcharts-markers highcharts-series-1 highcharts-line-series highcharts-color-undefined " transform="translate(43,106) scale(1 1)" clip-path="none"><path fill="#007A2F" d="M 8 94 A 4 4 0 1 1 7.999998000000167 93.99600000066667 Z" class="highcharts-point"></path><path fill="#007A2F" d="M 102 71 A 4 4 0 1 1 101.99999800000016 70.99600000066667 Z" class="highcharts-point"></path><path fill="#007A2F" d="M 149 76 A 4 4 0 1 1 148.99999800000018 75.99600000066667 Z" class="highcharts-point"></path><path fill="#007A2F" d="M 172 82 A 4 4 0 1 1 171.99999800000018 81.99600000066667 Z" class="highcharts-point"></path><path fill="#007A2F" d="M 196 83 A 4 4 0 1 1 195.99999800000018 82.99600000066667 Z" class="highcharts-point"></path><path fill="#007A2F" d="M 243 85 A 4 4 0 1 1 242.99999800000018 84.99600000066667 Z" class="highcharts-point"></path><path fill="#007A2F" d="M 290 63 A 4 4 0 1 1 289.9999980000002 62.99600000066666 Z" class="highcharts-point"></path><path fill="#007A2F" d="M 337 62 A 4 4 0 1 1 336.9999980000002 61.99600000066666 Z" class="highcharts-point"></path><path fill="#007A2F" d="M 384 63 A 4 4 0 1 1 383.9999980000002 62.99600000066666 Z" class="highcharts-point"></path><path fill="#007A2F" d="M 431 64 A 4 4 0 1 1 430.9999980000002 63.99600000066666 Z" class="highcharts-point"></path></g><g class="highcharts-series highcharts-series-2 highcharts-line-series highcharts-color-undefined " transform="translate(43,106) scale(1 1)" clip-path="url(#highcharts-eoaldb0-7)"><path fill="none" d="M 4.2352941176485 131.0298525 L 98.352941176471 111.21125849999999 L 145.41176470588 116.2012635 L 168.94117647059 121.22492399999999 L 192.47058823529 120.05852399999999 L 239.52941176471 115.615026 L 286.58823529412 97.65270899999999 L 333.64705882353 95.19354899999999 L 380.70588235294 91.179675 L 427.76470588235 96.12666899999999" class="highcharts-graph" stroke="#4f81bd" stroke-width="2" stroke-linejoin="round" stroke-linecap="round"></path></g><g class="highcharts-markers highcharts-series-2 highcharts-line-series highcharts-color-undefined " transform="translate(43,106) scale(1 1)" clip-path="none"><path fill="#4f81bd" d="M 8 131 A 4 4 0 1 1 7.999998000000167 130.99600000066667 Z" class="highcharts-point"></path><path fill="#4f81bd" d="M 102 111 A 4 4 0 1 1 101.99999800000016 110.99600000066667 Z" class="highcharts-point"></path><path fill="#4f81bd" d="M 149 116 A 4 4 0 1 1 148.99999800000018 115.99600000066667 Z" class="highcharts-point"></path><path fill="#4f81bd" d="M 172 121 A 4 4 0 1 1 171.99999800000018 120.99600000066667 Z" class="highcharts-point"></path><path fill="#4f81bd" d="M 196 120 A 4 4 0 1 1 195.99999800000018 119.99600000066667 Z" class="highcharts-point"></path><path fill="#4f81bd" d="M 243 116 A 4 4 0 1 1 242.99999800000018 115.99600000066667 Z" class="highcharts-point"></path><path fill="#4f81bd" d="M 290 98 A 4 4 0 1 1 289.9999980000002 97.99600000066667 Z" class="highcharts-point"></path><path fill="#4f81bd" d="M 337 95 A 4 4 0 1 1 336.9999980000002 94.99600000066667 Z" class="highcharts-point"></path><path fill="#4f81bd" d="M 384 91 A 4 4 0 1 1 383.9999980000002 90.99600000066667 Z" class="highcharts-point"></path><path fill="#4f81bd" d="M 431 96 A 4 4 0 1 1 430.9999980000002 95.99600000066667 Z" class="highcharts-point"></path></g><g class="highcharts-series highcharts-series-3 highcharts-line-series highcharts-color-undefined " transform="translate(43,106) scale(1 1)" clip-path="url(#highcharts-eoaldb0-7)"><path fill="none" d="M 4.2352941176485 107.09483849999998 L 98.352941176471 91.17785249999997 L 145.41176470588 88.32551849999999 L 168.94117647059 93.29960699999998 L 192.47058823529 94.05606599999999 L 239.52941176471 94.47864299999998 L 286.58823529412 76.7003985 L 333.64705882353 77.77980449999998 L 380.70588235294 75.87772199999998 L 427.76470588235 75.551616" class="highcharts-graph" stroke="#662673" stroke-width="2" stroke-linejoin="round" stroke-linecap="round"></path></g><g class="highcharts-markers highcharts-series-3 highcharts-line-series highcharts-color-undefined " transform="translate(43,106) scale(1 1)" clip-path="none"><path fill="#662673" d="M 8 107 A 4 4 0 1 1 7.999998000000167 106.99600000066667 Z" class="highcharts-point"></path><path fill="#662673" d="M 102 91 A 4 4 0 1 1 101.99999800000016 90.99600000066667 Z" class="highcharts-point"></path><path fill="#662673" d="M 149 88 A 4 4 0 1 1 148.99999800000018 87.99600000066667 Z" class="highcharts-point"></path><path fill="#662673" d="M 172 93 A 4 4 0 1 1 171.99999800000018 92.99600000066667 Z" class="highcharts-point"></path><path fill="#662673" d="M 196 94 A 4 4 0 1 1 195.99999800000018 93.99600000066667 Z" class="highcharts-point"></path><path fill="#662673" d="M 243 94 A 4 4 0 1 1 242.99999800000018 93.99600000066667 Z" class="highcharts-point"></path><path fill="#662673" d="M 290 77 A 4 4 0 1 1 289.9999980000002 76.99600000066667 Z" class="highcharts-point"></path><path fill="#662673" d="M 337 78 A 4 4 0 1 1 336.9999980000002 77.99600000066667 Z" class="highcharts-point"></path><path fill="#662673" d="M 384 76 A 4 4 0 1 1 383.9999980000002 75.99600000066667 Z" class="highcharts-point"></path><path fill="#662673" d="M 431 76 A 4 4 0 1 1 430.9999980000002 75.99600000066667 Z" class="highcharts-point"></path></g></g><text x="10" text-anchor="start" class="highcharts-title" style="color:#000000;font-size:14px;font-weight:bold;fill:#000000;" y="21"><tspan>Kontinentale Erreichbarkeit</tspan></text><text x="10" text-anchor="start" class="highcharts-subtitle" style="color:#000000;font-size:12px;font-weight:normal;font-family:arial;fill:#000000;" y="40"><tspan>Basel-Stadt im Vergleich</tspan></text><g class="highcharts-legend" transform="translate(55,45)"><rect fill="none" class="highcharts-legend-box" rx="0" ry="0" x="0" y="0" width="396" height="49" visibility="visible"></rect><g><g><g class="highcharts-legend-item highcharts-line-series highcharts-color-undefined highcharts-series-0" transform="translate(8,3)"><path fill="none" d="M 0 11 L 16 11" class="highcharts-graph" stroke="#B00000" stroke-width="2"></path><path fill="#B00000" d="M 12 11 A 4 4 0 1 1 11.999998000000167 10.996000000666664 Z" class="highcharts-point"></path><text x="21" style="color:#333333;font-size:12px;font-weight:normal;cursor:pointer;fill:#333333;" text-anchor="start" y="15"><tspan>Basel</tspan></text></g><g class="highcharts-legend-item highcharts-line-series highcharts-color-undefined highcharts-series-1" transform="translate(208,3)"><path fill="none" d="M 0 11 L 16 11" class="highcharts-graph" stroke="#007A2F" stroke-width="2"></path><path fill="#007A2F" d="M 12 11 A 4 4 0 1 1 11.999998000000167 10.996000000666664 Z" class="highcharts-point"></path><text x="21" y="15" style="color:#333333;font-size:12px;font-weight:normal;cursor:pointer;fill:#333333;" text-anchor="start"><tspan>Zürich</tspan></text></g><g class="highcharts-legend-item highcharts-line-series highcharts-color-undefined highcharts-series-2" transform="translate(8,22)"><path fill="none" d="M 0 11 L 16 11" class="highcharts-graph" stroke="#4f81bd" stroke-width="2"></path><path fill="#4f81bd" d="M 12 11 A 4 4 0 1 1 11.999998000000167 10.996000000666664 Z" class="highcharts-point"></path><text x="21" y="15" style="color:#333333;font-size:12px;font-weight:normal;cursor:pointer;fill:#333333;" text-anchor="start"><tspan>Bern</tspan></text></g><g class="highcharts-legend-item highcharts-line-series highcharts-color-undefined highcharts-series-3" transform="translate(208,22)"><path fill="none" d="M 0 11 L 16 11" class="highcharts-graph" stroke="#662673" stroke-width="2"></path><path fill="#662673" d="M 12 11 A 4 4 0 1 1 11.999998000000167 10.996000000666664 Z" class="highcharts-point"></path><text x="21" y="15" style="color:#333333;font-size:12px;font-weight:normal;cursor:pointer;fill:#333333;" text-anchor="start"><tspan>Genf</tspan></text></g></g></g></g><g class="highcharts-axis-labels highcharts-xaxis-labels "><text x="94.29411764705998" style="color:#000000;cursor:default;font-size:11px;fill:#000000;" text-anchor="middle" transform="translate(0,0)" y="368" opacity="1">1998</text><text x="164.88235294117715" style="color:#000000;cursor:default;font-size:11px;fill:#000000;" text-anchor="middle" transform="translate(0,0)" y="368" opacity="1">2001</text><text x="235.4705882352943" style="color:#000000;cursor:default;font-size:11px;fill:#000000;" text-anchor="middle" transform="translate(0,0)" y="368" opacity="1">2004</text><text x="306.0588235294114" style="color:#000000;cursor:default;font-size:11px;fill:#000000;" text-anchor="middle" transform="translate(0,0)" y="368" opacity="1">2007</text><text x="376.6470588235286" style="color:#000000;cursor:default;font-size:11px;fill:#000000;" text-anchor="middle" transform="translate(0,0)" y="368" opacity="1">2010</text><text x="447.23529411764576" style="color:#000000;cursor:default;font-size:11px;fill:#000000;" text-anchor="middle" transform="translate(0,0)" y="368" opacity="1">2013</text></g><g class="highcharts-axis-labels highcharts-yaxis-labels "><text x="28" style="color:#000000;cursor:default;font-size:11px;fill:#000000;" text-anchor="end" transform="translate(0,0)" y="354" opacity="1"><tspan>0</tspan></text><text x="28" style="color:#000000;cursor:default;font-size:11px;fill:#000000;" text-anchor="end" transform="translate(0,0)" y="293" opacity="1"><tspan>50</tspan></text><text x="28" style="color:#000000;cursor:default;font-size:11px;fill:#000000;" text-anchor="end" transform="translate(0,0)" y="232" opacity="1"><tspan>100</tspan></text><text x="28" style="color:#000000;cursor:default;font-size:11px;fill:#000000;" text-anchor="end" transform="translate(0,0)" y="171" opacity="1"><tspan>150</tspan></text><text x="28" style="color:#000000;cursor:default;font-size:11px;fill:#000000;" text-anchor="end" transform="translate(0,0)" y="110" opacity="1"><tspan>200</tspan></text></g><text x="10" class="highcharts-credits" text-anchor="start" style="cursor:default;color:#000000;font-size:10px;fill:#000000;" y="400"><tspan>Quelle: BAK Basel Economics</tspan></text></svg>

<svg class="highcharts-root" xmlns="http://www.w3.org/2000/svg" viewBox="0 0 485 415" font-family="arial" font-size="12">
    <defs>
        <clipPath id="a">
            <path fill="none" d="M0 0h432v243H0z"/>
        </clipPath>
    </defs>
    <rect fill="#fbfbfb" class="highcharts-background" width="485" height="415" rx="0" ry="0"/>
    <path fill="none" class="highcharts-plot-background" d="M43 106h432v243H43z"/>
    <g class="highcharts-grid highcharts-xaxis-grid">
        <path fill="none" class="highcharts-grid-line" d="M93.5 106v243m71-243v243m70-243v243m71-243v243m71-243v243m70-243v243"/>
    </g>
    <g class="highcharts-grid highcharts-yaxis-grid">
        <path fill="none" stroke="#B9CFD7" stroke-width=".5" class="highcharts-grid-line" d="M43 349.25h432m-432-61h432m-432-60h432m-432-61h432m-432-61h432"/>
    </g>
    <path fill="none" class="highcharts-plot-border" d="M43 106h432v243H43z"/>
    <g class="highcharts-axis highcharts-xaxis">
        <path fill="none" class="highcharts-axis-line" stroke="#B9CFD7" stroke-width=".5" d="M43 349.25h432"/>
    </g>
    <g class="highcharts-axis highcharts-yaxis">
        <path fill="none" class="highcharts-axis-line" d="M43 106v243"/>
    </g>
    <g class="highcharts-series-group">
        <g class="highcharts-series highcharts-series-0 highcharts-line-series highcharts-color-undefined" transform="translate(43 106)" clip-path="url(#a)">
            <path fill="none" d="M4.235 107.914l94.118-18.747 47.059 2.078 23.53 8.516 23.529-1.365 47.058 2.253 47.06-22.045 47.058-.807 47.059.887 47.059.67" class="highcharts-graph" stroke="#B00000" stroke-width="2" stroke-linejoin="round" stroke-linecap="round"/>
        </g>
        <g class="highcharts-markers highcharts-series-0 highcharts-line-series highcharts-color-undefined">
            <path fill="#B00000" d="M51 214a4 4 0 1 1 0-.004zm94-19a4 4 0 1 1 0-.004zm47 2a4 4 0 1 1 0-.004zm23 9a4 4 0 1 1 0-.004zm24-2a4 4 0 1 1 0-.004zm47 3a4 4 0 1 1 0-.004zm47-22a4 4 0 1 1 0-.004zm47-1a4 4 0 1 1 0-.004zm47 1a4 4 0 1 1 0-.004zm47 0a4 4 0 1 1 0-.004z" class="highcharts-point"/>
        </g>
        <g class="highcharts-series highcharts-series-1 highcharts-line-series highcharts-color-undefined" transform="translate(43 106)" clip-path="url(#a)">
            <path fill="none" d="M4.235 94.02l94.118-23.495 47.059 5.848 23.53 5.37 23.529.771 47.058 2.164 47.06-21.532 47.058-.723 47.059.27 47.059 1.025" class="highcharts-graph" stroke="#007A2F" stroke-width="2" stroke-linejoin="round" stroke-linecap="round"/>
        </g>
        <g class="highcharts-markers highcharts-series-1 highcharts-line-series highcharts-color-undefined">
            <path fill="#007A2F" d="M51 200a4 4 0 1 1 0-.004zm94-23a4 4 0 1 1 0-.004zm47 5a4 4 0 1 1 0-.004zm23 6a4 4 0 1 1 0-.004zm24 1a4 4 0 1 1 0-.004zm47 2a4 4 0 1 1 0-.004zm47-22a4 4 0 1 1 0-.004zm47-1a4 4 0 1 1 0-.004zm47 1a4 4 0 1 1 0-.004zm47 1a4 4 0 1 1 0-.004z" class="highcharts-point"/>
        </g>
        <g class="highcharts-series highcharts-series-2 highcharts-line-series highcharts-color-undefined" transform="translate(43 106)" clip-path="url(#a)">
            <path fill="none" d="M4.235 131.03l94.118-19.819 47.059 4.99 23.53 5.024 23.529-1.166 47.058-4.444 47.06-17.962 47.058-2.46 47.059-4.013 47.059 4.947" class="highcharts-graph" stroke="#4f81bd" stroke-width="2" stroke-linejoin="round" stroke-linecap="round"/>
        </g>
        <g class="highcharts-markers highcharts-series-2 highcharts-line-series highcharts-color-undefined">
            <path fill="#4f81bd" d="M51 237a4 4 0 1 1 0-.004zm94-20a4 4 0 1 1 0-.004zm47 5a4 4 0 1 1 0-.004zm23 5a4 4 0 1 1 0-.004zm24-1a4 4 0 1 1 0-.004zm47-4a4 4 0 1 1 0-.004zm47-18a4 4 0 1 1 0-.004zm47-3a4 4 0 1 1 0-.004zm47-4a4 4 0 1 1 0-.004zm47 5a4 4 0 1 1 0-.004z" class="highcharts-point"/>
        </g>
        <g class="highcharts-series highcharts-series-3 highcharts-line-series highcharts-color-undefined" transform="translate(43 106)" clip-path="url(#a)">
            <path fill="none" d="M4.235 107.095l94.118-15.917 47.059-2.852 23.53 4.974 23.529.756 47.058.423L286.59 76.7l47.058 1.08 47.059-1.902 47.059-.326" class="highcharts-graph" stroke="#662673" stroke-width="2" stroke-linejoin="round" stroke-linecap="round"/>
        </g>
        <g class="highcharts-markers highcharts-series-3 highcharts-line-series highcharts-color-undefined">
            <path fill="#662673" d="M51 213a4 4 0 1 1 0-.004zm94-16a4 4 0 1 1 0-.004zm47-3a4 4 0 1 1 0-.004zm23 5a4 4 0 1 1 0-.004zm24 1a4 4 0 1 1 0-.004zm47 0a4 4 0 1 1 0-.004zm47-17a4 4 0 1 1 0-.004zm47 1a4 4 0 1 1 0-.004zm47-2a4 4 0 1 1 0-.004zm47 0a4 4 0 1 1 0-.004z" class="highcharts-point"/>
        </g>
    </g>
    <text x="10" class="highcharts-title" y="21" color="#000" font-size="14" font-weight="700">
        <tspan>Kontinentale Erreichbarkeit</tspan>
    </text>
    <text x="10" class="highcharts-subtitle" y="40" color="#000" font-weight="400">
        <tspan>Basel-Stadt im Vergleich</tspan>
    </text>
    <g class="highcharts-legend" transform="translate(55 45)">
        <rect fill="none" class="highcharts-legend-box" rx="0" ry="0" width="396" height="49"/>
        <g class="highcharts-legend-item highcharts-line-series highcharts-color-undefined highcharts-series-0">
            <path fill="none" d="M8 14h16" class="highcharts-graph" stroke="#B00000" stroke-width="2"/>
            <path fill="#B00000" d="M20 14a4 4 0 1 1 0-.004z" class="highcharts-point"/>
            <text x="21" y="15" color="#333" font-weight="400" cursor="pointer" fill="#333" transform="translate(8 3)">
                <tspan>Basel</tspan>
            </text>
        </g>
        <g class="highcharts-legend-item highcharts-line-series highcharts-color-undefined highcharts-series-1">
            <path fill="none" d="M208 14h16" class="highcharts-graph" stroke="#007A2F" stroke-width="2"/>
            <path fill="#007A2F" d="M220 14a4 4 0 1 1 0-.004z" class="highcharts-point"/>
            <text x="21" y="15" color="#333" font-weight="400" cursor="pointer" fill="#333" transform="translate(208 3)">
                <tspan>Zürich</tspan>
            </text>
        </g>
        <g class="highcharts-legend-item highcharts-line-series highcharts-color-undefined highcharts-series-2">
            <path fill="none" d="M8 33h16" class="highcharts-graph" stroke="#4f81bd" stroke-width="2"/>
            <path fill="#4f81bd" d="M20 33a4 4 0 1 1 0-.004z" class="highcharts-point"/>
            <text x="21" y="15" color="#333" font-weight="400" cursor="pointer" fill="#333" transform="translate(8 22)">
                <tspan>Bern</tspan>
            </text>
        </g>
        <g class="highcharts-legend-item highcharts-line-series highcharts-color-undefined highcharts-series-3">
            <path fill="none" d="M208 33h16" class="highcharts-graph" stroke="#662673" stroke-width="2"/>
            <path fill="#662673" d="M220 33a4 4 0 1 1 0-.004z" class="highcharts-point"/>
            <text x="21" y="15" color="#333" font-weight="400" cursor="pointer" fill="#333" transform="translate(208 22)">
                <tspan>Genf</tspan>
            </text>
        </g>
    </g>
    <g class="highcharts-axis-labels highcharts-xaxis-labels" text-anchor="middle" color="#000" cursor="default" font-size="11">
        <text x="94.294" y="368">
            1998
        </text>
        <text x="164.882" y="368">
            2001
        </text>
        <text x="235.471" y="368">
            2004
        </text>
        <text x="306.059" y="368">
            2007
        </text>
        <text x="376.647" y="368">
            2010
        </text>
        <text x="447.235" y="368">
            2013
        </text>
    </g>
    <g class="highcharts-axis-labels highcharts-yaxis-labels" text-anchor="end" color="#000" cursor="default" font-size="11">
        <text x="28" y="354">
            <tspan>0</tspan>
        </text>
        <text x="28" y="293">
            <tspan>50</tspan>
        </text>
        <text x="28" y="232">
            <tspan>100</tspan>
        </text>
        <text x="28" y="171">
            <tspan>150</tspan>
        </text>
        <text x="28" y="110">
            <tspan>200</tspan>
        </text>
    </g>
    <text x="10" class="highcharts-credits" y="400" cursor="default" color="#000" font-size="10">
        <tspan>Quelle: BAK Basel Economics</tspan>
    </text>
</svg>
